X:1
T:UN SOIR DE NEIGE
T:UN SOIR DE NEIGE
T:Petite cantate de chambre pour 6 voix mixtes ou chœur a capella 
T:Francis POULENC
T:Paul ELUARD
T:1.DE GRANDE CUILLERS DE NEIGE...
T:2. LA BONNE NEIGE...
T:3. BOIS MEURTRI...
T:4. LA NUIT LE FROID LA SOLITUDE
C:Francis POULENC
Z:Paul ELUARD
%%score [ { 1 | 2 } 3 4 { 5 | 6 } ]
L:1/8
Q:1/4=56
M:3/4
K:G
V:1 treble nm="Sopranos" snm="S."
V:2 treble 
V:3 treble nm="Altos" snm="A."
V:4 treble-8 nm="Tenors" snm="T."
V:5 bass nm="Basses" snm="B."
V:6 bass 
V:1
"^Modéré (sans lenteur)"!mf!"^1" E2 | G2 F E G A | B2 B2 d2 | ^c2 A F A c | B3 F G E | %5
w: De|gran- des cuil- lers de|nei- ge Ra-|mas- sent nos pieds gla-|cés Et d'u- ne|
[M:4/4] A2 B D F2 F2 |[M:3/4]!<(! E F G3 =F!<)! | A ^F!f!!>(! B4 |[M:5/4] B2-!>)!!pp! B z z2 z4 | %9
w: du- re pa- ro- le|Nous heur- tons l'hi-|ver tê- tu|_ _|
 z10 |[M:3/4]"^1"!p! B2 c3 B |[M:4/4] A2 E G !>!^A2 F2 |[M:3/4] z6 |[M:2/4] z4 | %14
w: |Cha- que ruis-|seau son eau vi- ve|||
[M:3/4]"^2"!p! (B3 E F G | A ^A !breath!e4) |!p! G4 E2 |!>(! !fermata!B6-!>)! |!pp! B z z2 z2 |] %19
w: Nous nous n'a- vons|pas de feu|Pas de|feu|_|
[K:Eb][M:4/4][Q:1/4=72]"^Très moderé"[Q:1/4=72]"^1" z8 | z8 |[M:3/4] z6 | z6 | z6 | %24
w: |||||
[M:4/4]!ff! _d2 c =B c d c B | c2 !breath!c/ z/!>(!"^molto" A =e3!pp! =B!>)! | G2 G!ppp! z G2 G2 | %27
w: Honte à la bê- te pour- chas-|sé- e La fuite en|flè- che dans le|
[M:2/4] G4 |[M:4/4]"^1" z8 |[M:3/4] z6 |[M:4/4] z8 | z!ff! e d _d c2 _c B | %32
w: cœur||||et c'est tou- jours Le der-|
[M:3/4] =A =d =G z!p! c E |[M:4/4]!<(! A2 A G F2 E D | E2 F G!<)!!f! !breath!D4 | %35
w: nier vi- vant que me-|na- ce La masse ab- so-|lue de la mort|
"^2" z!ppp!"^très lié" c d e d2 c2 |[M:3/4] B d !breath!e c d e | d2 c2 B d | %38
w: La bon- ne nei- ge|le ciel noir Les Bran- ches|mor- tes la dé-|
 e2!<(! !breath!e c d e |[M:4/4] g e c A!<)!!f! d2 d z |!ff!"^3" _d2 c =B c d c B | %41
w: tres- se De la fo-|rêt plei- ne de piè- ges|Honte à la bê- te pour- chas-|
 _B2 !breath!B/ z/!>(!"^molto" A =e3!>)!!pp! =B | G2 G z!ppp! G2 G2 | G6- G z |] %44
w: sé- e La fuite en|flè- che dans le|cœur _|
[K:C][M:3/4][Q:1/4=52]"^Très lent et calme"!pp!"_1" ^f4 ^c2 | =c4- c !breath!z | e4 B2 | %47
w: Bois meur-|tri _|bois per-|
[M:2/4] _B2- B !breath!z |[M:3/4]"^très lié" A2 ^G2 =G2 |[M:2/4] ^F2 B2 |[M:3/4] ^E4- E z | z6 | %52
w: du _|d'un vo- yage|en hi-|ver _||
[M:2/4] z4 |[M:3/4]"^1"!ppp! _a4 _e2 | d2 !breath!d z ^f2 | =c2- !breath!c/ z/!<(! B ^A =A | %56
w: |Bois d'a-|si- le bois|mort _ où sans es-|
[M:2/4] ^G ^c ^^F F/ z/!<)! |[M:3/4]!f! ^E ^^F ^G2 =G =F | _A c B2- B z |"^2" z6 | z6 |[M:2/4] z4 | %62
w: poir je rê- ve|De la mer aux mi-|roirs cre- vés _||||
[M:3/4]"^3"!mf! _e2 d A _A _d | c G _B2 _A2- | !breath!A/ z/!p! ^G =A =B c2- | %65
w: la fou- le de mon|corps en souf- fre|_ je m'a- fai- blis|
 c/ z/!mf! B c d _e e- | e/ z/!f! _e B =e c2 | c/ z/!ff! _e =B =e c2- | %68
w: _ je me dis- per- se|_ j'a- voue ma vi-|e j'a- voue ma mort|
[M:4/4] c/ z/!fff! ^c ^e c!>(!"^molto" e2- e!>)! !fermata!z |[M:3/4]!ppp!"^4" ^f4 ^c2 | %70
w: _ j'a- voue au- trui _|Bois meur-|
 =c4- c !breath!z | e4 B2 | _B4- !breath!B z |"^5"!mf! z6 |!>(! z2 z2!>)!!p! ^E2 | %75
w: tri _|bois per-|du _||bois|
!>(! !>!^A6-!>)! |!ppp! A z z2 z2 |][K:Eb][M:5/4][Q:1/4=69]"^Eclatant, modéré""^1" z10 | %78
w: mort|_||
 z!ff! (B c e f d e c B2) |!ff! e d c2 B G A c B2 |[M:3/4] G2 A c B2 |!ff!"^1" z6 | z6 | %83
w: On m'en- fer- ma soi- gneu- se- ment|Mais les bran- ches cher- chaient leur voie|dans la pri- son|||
 z (B c e f c |[M:5/4] b2) z4 z4 |[M:4/4]!fff!"^2" e2 !>!B3 B B2 | e2 !>!B3 B B2 | c2 A2 F2 B2 | %88
w: On ver- rouil- la le|ciel|Le froid vi- vant|le froid brû- lant|m'eut bien en main|
[M:3/4] c2 A2 F2 | !breath!_c4!fff! e2 |"^long" !fermata!_g6- |"^sec" g z z2 z2 |] %92
w: m'eut bien en|main en|main|_|
V:2
!mf!"^2" E2 | G2 F E G A | B2 B2 d2 | ^c2 A F A c | B3 F G E |[M:4/4] A2 B D F2 F2 | %6
w: De|gran- des cuil- lers de|nei- ge Ra-|mas- sent nos pieds gla|cés Et d'u- ne|du- re pa- ro- le|
[M:3/4]!<(! E F G3 =F!<)! | A ^F!f!!>(! B4 |[M:5/4] B2-!>)!!pp! B z z2 z4 | z10 |[M:3/4]!pp! ^G6 | %11
w: Nous heur- tons l'hi-|ver tê- tu|_ _||son|
[M:4/4] E4 !>!E2 E2 |[M:3/4]!pp! B4 E2 |[M:2/4] B4 |[M:3/4]!pp! E4 E2 | E2 ^A4 | G4 E2 | %17
w: eau vi- ve|Pas de|feu|Nous pas|de feu|Pas de|
 !fermata!B6- | B z z2 z2 |][K:Eb][M:4/4]"^2"!p! !>!C2 C2 C2 C2 | C2 C2 C2 C2 |[M:3/4] C2 C2 C2 | %22
w: feu|_|La bon- ne nei-|ge le ciel noir|Les bran- ches|
 C2 C2 C2 | C2 C2 C z |[M:4/4] A2 A G G A A G | G2 G/ z/ F G3 G | E2 E z D2 C2 |[M:2/4] D4 | %28
w: mor- tes la|dé- tres- se|Honte à la bê- te pour- chas-|sé- e La fuite en|flè- che dans le|cœur|
[M:4/4] z8 |[M:3/4] z6 |[M:4/4] z!ff! c B A G c B A | G/ z/ G =B _B A2 F A |[M:3/4] _G _A F z E C | %33
w: ||et c'est tou- jours Le plus beau|loup et c'est tou- jours Le der-|nier vi- vant que me|
[M:4/4] C2 C C C2 C C | C2 C D !breath!=B,4 | z"^très lié" G D D B2 D2 | %36
w: na- ce La masse ab- so-|lue de la mort|La bon- ne nei- ge|
[M:3/4] D D !breath!B G D D | B2 D2 D D | B2 !breath!B G D D |[M:4/4] d c A F =B,2 B, z | %40
w: le ciel noir Les Bran- ches|mor- tes la dé-|tres- se De la fo-|rêt plei- ne de piè- ges|
 A2 A G G A A G | =G2 !breath!G/ z/ F G3 G | E2 E z!ppp! C2 D2 | =E6- E z |] %44
w: Honte à la bê- te pour- chas-|sé- e La fuite en|flè- che dans le|cœur _|
[K:C][M:3/4]"^2" ^c4 ^F2 | =G4- G !breath!z | B4 E2 |[M:2/4] F2- F !breath!z | %48
w: Bois meur-|tri _|bois per-|du _|
[M:3/4]"^très lié" D2 D2 D2 |[M:2/4] D2 D2 |[M:3/4] ^G4- G z | z6 |[M:2/4] z4 |[M:3/4] _e4 _A2 | %54
w: d'un vo- yage|en hi-|ver _|||Bois d'a-|
 =A2 !breath!A z ^c2 | =G2- !breath!G/ z/ E ^C E |[M:2/4] ^C E C C/ z/ |[M:3/4] B, =E ^C2 ^E B, | %58
w: si- le bois|mort _ où sans es-|poir je rê- ve|De la mer aux mi-|
 _E F G2- G z |!pp! G4 G2 | G4 !breath!G2 |[M:2/4] _A2 G z |[M:3/4]!pp! G2 ^F2 =F2 | _E2 G2 _A2- | %64
w: roirs cre- vés _|Un grand|mo- ment|noy- és|La fou- le|de mon corps|
 !breath!A/ z/ B, C D E2- | E/ z/ G G _B B B- | B/ z/ _B G =B A2 | A/ z/ _B =G =B =A2- | %68
w: _ je m'af- fai- blis|_ je me dis- per- se|_ j'a- voue ma vi-|e j'a- voue ma mort|
[M:4/4] A/ z/ ^G B ^^F B2- B !fermata!z |[M:3/4] ^c4 ^F2 | G4- G !breath!z | B4 E2 | %72
w: _ j'a- voue au- trui _|Bois meur-|tri _|bois per-|
 F4- !breath!F z | _A4 G2 | ^F2 F z ^C2 | !>!^E2 z2 z2 | z6 |] %77
w: du _|Bois d'a-|si- le bois|mort||
[K:Eb][M:5/4]!f!"^2" (E2 F3 G F E F G |!>(! B8!>)!!p! B) z | G d E2 D E _F _G =F2 | %80
w: La nuit le froid la so- li-|tu- de|Mais les bran- ches cher- chaient leur voie|
[M:3/4] E2 _F A =F2 | C2 D3 E | D C D E D E | E6- |[M:5/4] E z (_d =d f2 e _d B2) | %85
w: dans la pri- son|au- tour de|moi l'her- be trou- va le|ciel|_ ma pri- son s'é- crou- la|
[M:4/4] B2 !>!G3 A A2 | B2 !>!A3 A A2 | G2 E2 =D2 E2 |[M:3/4] G2 E2 =D2 | !breath!_F4 _G2 | E6- | %91
w: Le froid vi- vant|le froid brû- lant|m'eut bien en main|m'eut bien en|main en|main|
 E z z2 z2 |] %92
w: _|
V:3
 z2 | z6 | z6 | z6 | z6 |[M:4/4] z8 |[M:3/4] z6 | z6 |[M:5/4] (G2!p! F2 E F G E F2) | %9
w: ||||||||chaque arbre a sa place en l'air|
 (G G F3 E F G F !breath!F) |[M:3/4]!pp! D6 |[M:4/4] C4 !>!^A,2 A,2 |[M:3/4]!pp! E4 B,2 | %13
w: Cha- que roc son poids sur ter- re|son|eau vi- ve|Pas de|
[M:2/4] (E2 A,2) |[M:3/4]!pp! B,4 B,2 | C2 C4 | C4 E2 | !fermata!E6- | E z z2 z2 |] %19
w: feu _|Nous pas|de feu|Pas de|feu|_|
[K:Eb][M:4/4] z!mf! C D E D2 C2 | B, D E3 C D E |[M:3/4] D2 C2 E F | G2 G c B A | G c B A G G/ z/ | %24
w: La bon- ne nei- ge|le ciel noir Les bran- ches|mor- tes la dé-|tres- se De la fo-|rêt plei- ne de piè- ges|
[M:4/4] F2 E !courtesy!=D E F E D | E2 E/ z/ z z4 | z4 z4 |[M:2/4] z4 |[M:4/4]!mf! z (C D E D2 C2 | %29
w: Honte à la bê- te pour- chas-|sé- e|||Les tra- ces d'u- ne|
[M:3/4] B, D E/ E/4) z/4!f! C D E |[M:4/4] D/ z/ G F E D G F E | D/ z/ C G =E F2 _E D | %32
w: proie a- tro- ce Har- di au|loup et c'est tou- jours Le plus beau|loup et c'est tou- jours Le der-|
[M:3/4] E C =B, z E G |[M:4/4] F2 F E D2 C D | E2 D C !breath!G4 | z"^très lié" D B G D2 G2 | %36
w: nier vi- vant que me|na- ce La masse ab- so-|lue de la mort|La bon- ne nei- ge|
[M:3/4] F G !breath!D D B G | D2 G2 F G | D2 !breath!D D B G |[M:4/4] B G E C G2 G z | %40
w: le ciel noir Les Bran- ches|mor- tes la dé-|tres- se De la fo-|rêt plei- ne de piè- ges|
 F2 E D E F E D | _D2 !breath!D/ z/ z z4 | z4 z2!ppp! D2 | =E6- E z |][K:C][M:3/4] ^F4 ^C2 | %45
w: Honte à la bê- te pour- chas-|sé- e|le|cœur _|Bois meur-|
 =C4- C !breath!z | E4 B,2 |[M:2/4] _B,2- B, !breath!z |[M:3/4]"^très lié" B,2 B,2 B,2 | %49
w: tri _|bois per-|du _|d'un vo- yage|
[M:2/4] B,2 B,2 |[M:3/4] D2- D z ((D2 | _E3) D E F |[M:2/4] C _E !breath!_C2) |[M:3/4] _A4 _E2 | %54
w: en hi-|ver _ Na-|vire où la nei-|ge prend pied|Bois d'a-|
 D2 !breath!D z ^F2 | =C2- !breath!C/ z/ E ^A, B, |[M:2/4] ^A, ^C E E/ z/ |[M:3/4] ^C D ^E2 C D | %58
w: si- le bois|mort _ où sans es-|poir je rê- ve|De la mer aux mi-|
 =C _E D2- D z |!pp! _E4 F2 | =E4 !breath!F2 |[M:2/4] F2 =D z |[M:3/4]!pp! _E2 D2 _D2 | %63
w: roirs cre- vés _|Un grand|mo- ment|noy- és|La fou- le|
 C2 _D2 C2- | !breath!C/ z/ E E G G2- | G/ z/ D E F _G G- | G/ z/ _G =E _A F2 | %67
w: de mon corps|_ je m'af- fai- blis|_ je me dis- per- se|_ j'a- voue ma vi-|
 F/ z/ _G =E _A F2- |[M:4/4] F/ z/ ^C ^E C E2- E !fermata!z |[M:3/4] ^F4 ^C2 | =C4- C !breath!z | %71
w: e j'a- voue ma mort|_ j'a- voue au- trui _|Bois meur-|tri _|
 E4 B,2 | _B,4- !breath!B, z | D4 D2 | D2 D z B,2 | !>!^D2 =D4- | D z z2 z2 |][K:Eb][M:5/4] z10 | %78
w: bois per-|du _|Bois d'a-|si- le bois|mort _|_||
 z10 | z10 |[M:3/4] z6 | E2 F3 G | F E F G F G | B6- |[M:5/4] B z (_A F G2 _G =E F2) | %85
w: |||au- tour de|moi l'her- be trou- va le|ciel|_ ma pri- son s'é- crou- la|
[M:4/4] G2 !>!=E3 E F2 | G2 !>!=E3 E F2 | C2 C2 _C2 B,2 |[M:3/4] C2 C2 _C2 | !breath!_C4 E2 | B6- | %91
w: Le froid vi- vant|le froid brû- lant|m'eut bien en main|m'eut bien en|main en|main|
 B z z2 z2 |] %92
w: _|
V:4
 z2 | z6 | z6 | z6 | z6 |[M:4/4] z8 |[M:3/4] z6 | z6 |[M:5/4] (B2!p! d2 B d d B d2) | %9
w: ||||||||chaque arbre a sa place en l'air|
 (B B d3 B d e d !breath!d) |[M:3/4]!pp! f2 =f2 e2 |[M:4/4] c2 B A !>!F2 F2 |[M:3/4]!pp! B4 E2 | %13
w: Cha- que roc son poids sur ter- re|Cha- que ruis-|seau son eau vi- ve|Pas de|
[M:2/4] =F4 |[M:3/4]!pp! (e3 B G E | c e"^très doux" g4) | _B4 c2 | !fermata!=B6- | B z z2 z2 |] %19
w: feu|Nous nous n'a- vons|pas de feu|Pas de|feu|_|
[K:Eb][M:4/4] z8 | z8 |[M:3/4] z2 z2!mf! e d | e2 e =e f d | _e =e f d _e e/ z/ | %24
w: ||la dé-|tres- se De la fo-|rêt plei- ne de piè- ges|
[M:4/4] _d2 B =B c d _B =B | c2 c/ z/ c =B3 B | c2 c z =B2 =A2 |[M:2/4] =B4 | %28
w: Honte à la bê- te pour- chas-|sé- e La fuite en|flè- che dans le|cœur|
[M:4/4]!mf! z (G _B c B2 G2 |[M:3/4] G) B G/ G/4 z/4!f! G B c |[M:4/4] B/ z/ e d c d e d c | %31
w: Les tra- ces d'u- ne|proie a- tro- ce Har- di au|loup et c'est tou- jours Le plus beau|
 d/ z/ c g =e f2 _e d |[M:3/4] e c =B z c c |[M:4/4] F2 F G A2 G F | G2 A A !breath!G4 | %35
w: loup et c'est tou- jours Le der-|nier vi- vant que me|na- ce La masse ab- so-|lue de la mort|
 z"^très lié" G e B e2 c2 |[M:3/4] c B !breath!e G e B | e2 B2 c B | e2 !breath!e B c B | %39
w: La bon- ne nei- ge|le ciel noir Les Bran- ches|mor- tes la dé-|tres- se De la fo-|
[M:4/4] e e g d =B2 B z | _d2 _B =B c d _B _c | _d2 !breath!d/ z/ c =B3 B | c2 c z!ppp! =A2 =B2 | %43
w: rêt plei- ne de piè- ges|Honte à la bê- te pour- chas|sé- e La fuite en|flè- che dans le|
 c6- c z |][K:C][M:3/4] A4 A2 | !>!_e4- e !breath!z | G4 G2 |[M:2/4] !>!_d2- d !breath!z | %48
w: cœur _|Bois meur-|tri _|bois per-|du _|
[M:3/4]"^très lié" A2 ^G2 =G2 |[M:2/4] ^F2 B2 |[M:3/4] ^E4- E z | z6 |[M:2/4] z4 |[M:3/4] _c4 c2 | %54
w: d'un vo- yage|en hi-|ver _|||Bois d'a-|
 !>!f2 !breath!f z A2 | e2- !breath!e/ z/ B ^A =A |[M:2/4] ^G ^c ^^F F/ z/ | %57
w: si- le bois|mort _ où sans es-|poir je rê- ve|
[M:3/4] ^G ^^F B2 G =G | =F _A G2- G z |!pp! c4 d2 | _d4 !breath!=d2 |[M:2/4] _d2 =B z | %62
w: De la mer aux mi-|roirs cre- vés _|Un grand|mo- ment|noy- és|
[M:3/4]!mf! _e2 d A _A _d | c G _B2 _A2- | !breath!A/ z/ =B c d e2- | e/ z/ G c _B _e e- | %66
w: la fou- le de mon|corps en souf- fre|_ je m'a- fai- blis|_ je me dis- per- se|
 e/ z/ _e =B =e c2 | c/ z/ _e =B =e c2- |[M:4/4] c/ z/ B ^c d c2- c !fermata!z |[M:3/4] A4 A2 | %70
w: _ j'a- voue ma vi-|e j'a- voue ma mort|_ j'a- voue au- trui _|Bois meur-|
 _e4- e !breath!z | G4 G2 | _d4- !breath!d z | B4 B2 | B2 B z B2 |"^très doux" !>!^e6- | %76
w: tri _|bois per-|du _|Bois d'a-|si- le bois|mort|
 e z z2 z2 |][K:Eb][M:5/4] z10 | z!ff! (B c e f d e c B2) | c G A2 B c _d e =d2 | %80
w: _||On m'en- fer- ma soi- gneu- se- ment|Mais les bran- ches cher- chaient leur voie|
[M:3/4] B2 _c _d =d2 | G2 G3 G | G G G G G G | G6- |[M:5/4] G z (_d c B2 _c B =d2) | %85
w: dans la pri- son|au- tour de|moi l'her- be trou- va le|ciel|_ ma pri- son s'é- crou- la|
[M:4/4] B2 !>!_c2 (=c_d) =d2 | B2 !>!_c2 (=c_d) =d2 | _d2 !>!c2 (B_c) B2 |[M:3/4] _d2 c2 B_c | %89
w: Le froid vi- * vant|Le froid brû- * lant|m'eut bien en * main|m'eut bien en- *|
 !breath!_A4 =A2 | B6- | B z z2 z2 |] %92
w: main en|main|_|
V:5
"^1" z2 | z6 | z6 | z6 | z6 |[M:4/4] z8 |[M:3/4] z6 | z6 |[M:5/4] z10 | z10 |[M:3/4] z6 | %11
w: |||||||||||
[M:4/4] z8 |[M:3/4]!pp! B,3"^en dehors" E, ^F, G, |[M:2/4] A, B, E2 |[M:3/4]!pp! E,2 B,2 E,2 | %15
w: |Nous nous n'a- vons|pas de feu|Nous nous n'a-|
 ^A,2 A,4 | E,4 F,2 | !fermata!G,6- | G, z z2 z2 |][K:Eb][M:4/4] z8 | z8 |[M:3/4] z6 | z6 | z6 | %24
w: vons pas|Pas de|feu|_||||||
[M:4/4] F,2 ^F, G, C, =F, ^F, G, | C,2 C,/ z/ F, =E,3 E, | G,2 G, z G,2 G,2 |[M:2/4] G,4 | %28
w: Honte à la bê- te pour- chas-|sé- e La fuite en|flè- che dans le|cœur|
[M:4/4] z8 |[M:3/4] z2 z!f! E, C, G, |[M:4/4] G,/ z/ C G, A, =B, C G, A, | =B,/ z/ z z2 z4 | %32
w: |Har- di au|loup et c'est tou- jours Le plus beau|loup|
[M:3/4] z6 |[M:4/4] z8 | z8 | z"^très lié" E, C, E, G,2 E,2 |[M:3/4] G, E, !breath!C, E, C, D, | %37
w: |||La bon- ne nei- ge|le ciel noir Les Bran- ches|
 G,2 E,2 G, E, | C,2 C,4- |[M:4/4] C, z z2 z4 | A,2 A, G, G, A, A, G, | %41
w: mor- tes la dé-|tres- se|_|Honte à la bê- te pour- chas-|
 G,2 !breath!G,/ z/ =F, =E,3 E, | G,2 G, z!ppp! G,2 G,2 | C,6- C, z |][K:C][M:3/4]"^1" ^C,4 C,2 | %45
w: sé- e La fuite en|flè- che dans le|cœur _|Bois meur-|
 G,4- G, !breath!z | B,,4 B,,2 |[M:2/4] F,2- F, !breath!z |[M:3/4]"^très lié" ^E,2 E,2 E,2 | %49
w: tri _|bois per-|du _|d'un vo- yage|
[M:2/4] B,2 D2 |[M:3/4] D4- D z | z6 |[M:2/4] z4 |[M:3/4] _E,4 E,2 | =A,2 !breath!A, z ^C,2 | %55
w: en hi-|ver _|||Bois d'a-|si- le bois|
 G,2- !breath!G,/ z/ G, G, G, |[M:2/4] ^G, ^A, ^C C/ z/ |[M:3/4]!f! ^G, ^^F, B,2 G, =F, | %58
w: mort _ où sans es-|poir je rê- ve|De la mer aux mi-|
 =F, _A, G,2- G, z |!mf! C2 D _E B, G, | _B,2 A, B, =B,2 |[M:2/4] C _A, G, z | %62
w: roirs cre- vés _|Un grand mo- ment d'eau|froide a sai- si|les noy- és|
[M:3/4]!p! G,2 =A, C _D _A, | G, C _D2 C2- | !breath!C/ z/ E, A, G, C2- | C/ z/ z z2 z2 | %66
w: la fou- le de mon|corps en souf- fre|_ je m'a- fai- blis|_|
 z _B, =B, C =A,2 | A,/ z/ _B, =B, C =A,2- |[M:4/4] A,/ z/ ^E, ^^F, ^G, F,2- F, !fermata!z | %69
w: j'a- voue ma vi-|e j'a- voue ma mort|_ j'a- voue au- trui _|
[M:3/4] ^C,4 C,2 | G,4- G, !breath!z | B,,4 B,,2 | F,4- !breath!F, z | F,4 G,2 | ^G,2 G, z =G,2 | %75
w: Bois meur-|tri _|bois per-|du _|Bois d'a-|si- le bois|
 !>!B,6- | B, z z2 z2 |][K:Eb][M:5/4]!f! (E,2 F,3 G, F, E, F, G, |!>(! B,8!>)!!p! B,) z | z10 | %80
w: mort|_|La nuit le froid la so- li-|tu- de||
[M:3/4] z6 | B,2 C3 D | C B, C D C D | C6- |[M:5/4] C z (B, =A, E,2 _F, _G, B,2) | %85
w: |au- tour de|moi l'her- be trou- va le|ciel|_ ma pri- son s'é- crou- la|
[M:4/4] E,2 !>!E,3 !courtesy!_E E,2 | E,2 !>!E,3 !courtesy!_E E,2 | E2 E,2 A,2 G,2 | %88
w: Le froid vi- vant|le froid brû- lant|m'eut bien en main|
[M:3/4] E2 E,2 A,2 | !breath!=D4 _C2 | _G,6- | G, z z2 z2 |] %92
w: m'eut bien en|main en|main|_|
V:6
"^2" z2 | z6 | z6 | z6 | z6 |[M:4/4] z8 |[M:3/4] z6 | z6 |[M:5/4] (E,2!p! B,2 G, E, B, E, B,,2) | %9
w: ||||||||chaque arbre a sa place en l'air|
 (E, E, B,3 G, B, E B, !breath!B,) |[M:3/4]!pp! E,6 |[M:4/4] A,,4 !>!C,2 C,2 | %12
w: Cha- que roc son poids sur ter- re|son|eau vi- ve|
[M:3/4] G,,2 G,,2 G,2 |[M:2/4] G,2 G,,2 |[M:3/4]!pp! G,,2 G,,2 G,,2 | F,,2 F,,4 | C,4 A,,2 | %17
w: Nous nous n'a-|vons pas|Nous nous n'a-|vons pas|Pas de|
 !fermata!E,,6- | E,, z z2 z2 |][K:Eb][M:4/4] z8 | z8 |[M:3/4] z6 | z6 | z6 |[M:4/4] z8 | z8 | z8 | %27
w: feu|_|||||||||
[M:2/4] z4 |[M:4/4]!mf! z E, C, G,, C,2 E,2 |[M:3/4] C, G,, C,/ C,/4 z/4 z z2 | %30
w: |Les tra- ces d'u- ne|proie a- tro- ce|
[M:4/4] z!f! C G, A, =B, C G, A, | =B,/ z/ z z2 z4 |[M:3/4] z6 |[M:4/4] z8 | z8 | z (C, C,6-) | %36
w: et c'est tou- jours Le plus beau|loup||||Ah! _|
[M:3/4] C,2- C,- C, C,2- | C,6- | C,2- !breath!C, G, E, G, |[M:4/4] G, A, F, A, G,2 G, z | %40
w: _ _ _ _||* * De la fo-|rêt plei- ne de piè- ges|
 F,2 ^F, G, C, =F, ^F, G, | =E,2 !breath!E,/ z/ z z4 | %42
w: Honte à la bê- te pour- chas|sé- e|
 z4"_Long silence avant d'attaquer le 3" z2!ppp! G,2 | C,6- C, z |][K:C][M:3/4]"^2" ^F,,4 F,,2 | %45
w: le|cœur _|Bois meur-|
 =C,4- C, !breath!z | E,,4 E,,2 |[M:2/4] _B,,2- B,, !breath!z |[M:3/4]"^très lié" =B,,2 ^C,2 D,2 | %49
w: tri _|bois per-|du _|d'un vo- yage|
[M:2/4] ^E,2 ^G,2 |[M:3/4] B,4- B, z | z6 |[M:2/4] z4 |[M:3/4] _A,,4 A,,2 | %54
w: en hi-|ver _|||Bois d'a-|
 D,2 !breath!D, z ^F,,2 | =C,2- !breath!C,/ z/ ^C, D, ^D, |[M:2/4] E, G, ^A, A,/ z/ |[M:3/4] z6 | %58
w: si- le bois|mort _ où sans es-|poir je rê- ve||
 z6 |!mf! C,2 D, _E, B,, G,, | _B,,2 A,, B,, =B,,2 |[M:2/4] C, _A,, G,, z |[M:3/4]!mf! C,2 C2 C,2 | %63
w: |Un grand mo- ment d'eau|froide a sai- si|les noy- és|La fou- le|
 C,2 E,2 F,2- | !breath!F,/ z/ z z2 z2 | z6 | z _E, =E, C, F,2 | F,/ z/ _E, =E, C, F,2- | %68
w: de mon corps|_||j'a- voue ma vi-|e j'a- voue ma mort|
[M:4/4] F,/ z/ z z2 z4 |[M:3/4] ^F,,4 F,,2 | =C,4- C, !breath!z | E,,4 E,,2 | B,,4- !breath!B,, z | %73
w: _|Bois meur-|tri _|bois per-|du _|
 z6 | z2 z2 G,2 | !>!^C,6- | C, z z2 z2 |][K:Eb][M:5/4] z10 | z10 | z10 |[M:3/4] z6 | E,2 B,,3 E, | %82
w: |bois|mort|_|||||au- tour de|
 B,, E, C, E, B,, E, | B,,6- |[M:5/4] B,, z z8 |[M:4/4]"^(ne pas étouffer les Ténors)" z8 | z8 | %87
w: moi l'her- be trou- va le|ciel|_|||
 z8 |[M:3/4] z6 | z2 z2 _C,2 | E,,6- | E,, z z2 z2 |] %92
w: ||en|main|_|

